usr/share/icons/biglinux-icons-material/24/actions/gnumeric-autosum.svg

<svg xmlns="http://www.w3.org/2000/svg" viewBox="0 0 24 24"><path d="m4 4 4 8-4 8h16v-4h-1v3H5.937l3.313-7-3.438-7H19v3h1V4H4z" style="fill:currentColor;fill-opacity:1;stroke:none;color:#dedede"/></svg>

<svg xmlns="http://www.w3.org/2000/svg" viewBox="0 0 24 24">
  <defs id="defs3051">
    <style type="text/css" id="current-color-scheme">
      .ColorScheme-Text {
        color:#dedede;
      }
      </style>
  </defs>
 <path style="fill:currentColor;fill-opacity:1;stroke:none" 
     d="M 4 4 L 8 12 L 4 20 L 20 20 L 20 16 L 19 16 L 19 19 L 5.9375 19 L 9.25 12 L 5.8125 5 L 19 5 L 19 8 L 20 8 L 20 4 L 4 4 z "
     class="ColorScheme-Text"
     />
</svg>
